T: Wren, The
M: 4/4
L: 1/8
K: Emin
|: EB BA/B/ CB AF/G/ | AF BA/G/ F/G/E/F/ GF | |: EE FG/F/ EE F_F/G/ | AF BA/G/ F/G/E/F/ GF | |: EB B_B/A/ GE E2 | AG FE DE/F GF/G/ | |: E/F/G/F/ E/F/G/F/ E/F/G/A/ BB | D/E/F/E/ D_D/E/ FA GF/G/ |
